images_sukapura_svg/cmd/32/reload.svg

<svg viewBox="0 0 32 32" xmlns="http://www.w3.org/2000/svg" xmlns:xlink="http://www.w3.org/1999/xlink"><linearGradient id="a" gradientUnits="userSpaceOnUse" x1="-15.118644" x2="-15.118644" y1="36.61017" y2="8.61017"><stop offset="0" stop-color="#2a9240"/><stop offset="1" stop-color="#32d74b"/></linearGradient><path d="m16 3a13 13 0 0 0 -6.9375 2.0253906l1.455078 1.4550782a11 11 0 0 1 .205078-.1054688 11 11 0 0 0 -.199218.1113281l3.476562 3.4765625v-4.7597656a11 11 0 0 1 2-.203125 11 11 0 0 1 11 11 11 11 0 0 1 -1.476562 5.486328l1.460937 1.460938a13 13 0 0 0 2.015625-6.947266 13 13 0 0 0 -13-13zm-2.201172 2.2382812a11 11 0 0 0 -.570312.1367188 11 11 0 0 1 .570312-.1367188zm-1.044922.2714844a11 11 0 0 0 -.630859.2226563 11 11 0 0 1 .630859-.2226563zm-.986328.3613282a11 11 0 0 0 -.701172.328125 11 11 0 0 1 .701172-.328125zm-6.3398436 2.59375a13 13 0 0 0 -2.4277344 7.5351562 13 13 0 0 0 13 13 13 13 0 0 0 7.539062-2.423828l-1.435546-1.435547a11 11 0 0 1 -.046875.029297 11 11 0 0 0 .044921-.03125l-3.101562-3.101563v4.535157a11 11 0 0 1 -3 .427734 11 11 0 0 1 -11-11 11 11 0 0 1 1.7929688-6h.1699218l-.1015625-.1015625a11 11 0 0 0 -.0644531.09375 11 11 0 0 1 .0605469-.0976563zm16.2421876 16.9355472a11 11 0 0 1 -.572266.333984 11 11 0 0 0 .572266-.333984zm-1.066406.566406a11 11 0 0 1 -.5.228515 11 11 0 0 0 .5-.228515zm-1.080078.435547a11 11 0 0 1 -.445313.15039 11 11 0 0 0 .445313-.15039z" fill="url(#a)"/></svg>

<?xml version="1.0" encoding="UTF-8" standalone="no"?>
<svg
   xmlns:dc="http://purl.org/dc/elements/1.1/"
   xmlns:cc="http://creativecommons.org/ns#"
   xmlns:rdf="http://www.w3.org/1999/02/22-rdf-syntax-ns#"
   xmlns:svg="http://www.w3.org/2000/svg"
   xmlns="http://www.w3.org/2000/svg"
   xmlns:xlink="http://www.w3.org/1999/xlink"
   xmlns:sodipodi="http://sodipodi.sourceforge.net/DTD/sodipodi-0.dtd"
   xmlns:inkscape="http://www.inkscape.org/namespaces/inkscape"
   viewBox="0 0 32 32"
   version="1.1"
   id="svg4"
   sodipodi:docname="reload.svg"
   inkscape:version="0.92.3 (unknown)"
   inkscape:export-filename="/home/rizmut/Dokumen/Rizmut/Github/libreoffice-style-sukapura/images_sukapura/cmd/32/reload.png"
   inkscape:export-xdpi="96"
   inkscape:export-ydpi="96">
  <metadata
     id="metadata10">
    <rdf:RDF>
      <cc:Work
         rdf:about="">
        <dc:format>image/svg+xml</dc:format>
        <dc:type
           rdf:resource="http://purl.org/dc/dcmitype/StillImage" />
        <dc:title></dc:title>
      </cc:Work>
    </rdf:RDF>
  </metadata>
  <defs
     id="defs8">
    <linearGradient
       gradientTransform="translate(-31.118644,6.6101695)"
       id="a-36"
       gradientUnits="userSpaceOnUse"
       x1="14"
       x2="13.79661"
       y1="22"
       y2="2.1355929">
      <stop
         offset="0"
         stop-color="#0040dd"
         id="stop1586"
         style="stop-color:#2a9240;stop-opacity:1" />
      <stop
         offset="1"
         stop-color="#0a84ff"
         id="stop1588"
         style="stop-color:#32d74b;stop-opacity:1" />
    </linearGradient>
    <linearGradient
       inkscape:collect="always"
       xlink:href="#a-36"
       id="linearGradient863"
       x1="16"
       y1="30"
       x2="16"
       y2="2"
       gradientUnits="userSpaceOnUse" />
  </defs>
  <sodipodi:namedview
     pagecolor="#ffffff"
     bordercolor="#666666"
     borderopacity="1"
     objecttolerance="10"
     gridtolerance="10"
     guidetolerance="10"
     inkscape:pageopacity="0"
     inkscape:pageshadow="2"
     inkscape:window-width="1366"
     inkscape:window-height="706"
     id="namedview6"
     showgrid="true"
     inkscape:zoom="7.375"
     inkscape:cx="40.959488"
     inkscape:cy="2.8220358"
     inkscape:window-x="0"
     inkscape:window-y="0"
     inkscape:window-maximized="1"
     inkscape:current-layer="svg4">
    <inkscape:grid
       type="xygrid"
       id="grid817"
       spacingx="0.5"
       spacingy="0.5"
       empspacing="2" />
  </sodipodi:namedview>
  <path
     style="fill:url(#linearGradient863);fill-opacity:1;stroke:none;stroke-opacity:1"
     d="M 16 3 A 13 13 0 0 0 9.0625 5.0253906 L 10.517578 6.4804688 A 11 11 0 0 1 10.722656 6.375 A 11 11 0 0 0 10.523438 6.4863281 L 14 9.9628906 L 14 5.203125 A 11 11 0 0 1 16 5 A 11 11 0 0 1 27 16 A 11 11 0 0 1 25.523438 21.486328 L 26.984375 22.947266 A 13 13 0 0 0 29 16 A 13 13 0 0 0 16 3 z M 13.798828 5.2382812 A 11 11 0 0 0 13.228516 5.375 A 11 11 0 0 1 13.798828 5.2382812 z M 12.753906 5.5097656 A 11 11 0 0 0 12.123047 5.7324219 A 11 11 0 0 1 12.753906 5.5097656 z M 11.767578 5.8710938 A 11 11 0 0 0 11.066406 6.1992188 A 11 11 0 0 1 11.767578 5.8710938 z M 5.4277344 8.4648438 A 13 13 0 0 0 3 16 A 13 13 0 0 0 16 29 A 13 13 0 0 0 23.539062 26.576172 L 22.103516 25.140625 A 11 11 0 0 1 22.056641 25.169922 A 11 11 0 0 0 22.101562 25.138672 L 19 22.037109 L 19 26.572266 A 11 11 0 0 1 16 27 A 11 11 0 0 1 5 16 A 11 11 0 0 1 6.7929688 10 L 6.9628906 10 L 6.8613281 9.8984375 A 11 11 0 0 0 6.796875 9.9921875 A 11 11 0 0 1 6.8574219 9.8945312 L 5.4277344 8.4648438 z M 21.669922 25.400391 A 11 11 0 0 1 21.097656 25.734375 A 11 11 0 0 0 21.669922 25.400391 z M 20.603516 25.966797 A 11 11 0 0 1 20.103516 26.195312 A 11 11 0 0 0 20.603516 25.966797 z M 19.523438 26.402344 A 11 11 0 0 1 19.078125 26.552734 A 11 11 0 0 0 19.523438 26.402344 z "
     id="path819" />
</svg>
